flaticon/hand-gestures/pointing-up-1.svg

<svg xmlns="http://www.w3.org/2000/svg" width="32" height="32" viewBox="0 0 24 24">
    <path d="M 19.605469 8.398438 C 19.164062 8.398438 18.726562 8.558594 18.40625 8.800781 L 18.40625 8.398438 C 18.40625 7.28125 17.527344 6.398438 16.40625 6.398438 C 15.964844 6.398438 15.527344 6.558594 15.207031 6.800781 C 15.207031 5.679688 14.324219 4.800781 13.207031 4.800781 C 12.765625 4.800781 12.324219 4.960938 12.003906 5.199219 L 12.003906 2 C 12.003906 0.878906 11.125 0 10.003906 0 C 8.886719 0 8.003906 0.878906 8.003906 2 L 8.003906 11.078125 C 7.125 9.558594 5.085938 8.800781 3.527344 9.359375 C 3.324219 9.398438 3.164062 9.519531 2.964844 9.640625 C 2.367188 10.039062 2.40625 10.558594 2.40625 10.71875 C 2.367188 10.960938 2.40625 11 2.964844 11.640625 C 3.644531 12.441406 5.125 14.121094 6.046875 15.800781 C 6.125 15.878906 7.207031 17.640625 8.40625 18.960938 L 8.40625 20 C 8.40625 22.199219 10.207031 24 12.40625 24 L 16.40625 24 C 18.125 24 19.925781 22.558594 20.324219 20.878906 C 20.445312 20.398438 20.566406 20.039062 20.726562 19.878906 C 21.125 19.398438 21.605469 18.28125 21.605469 16.800781 L 21.605469 10.398438 C 21.605469 9.28125 20.726562 8.398438 19.605469 8.398438 Z M 16.445312 23.199219 L 12.445312 23.199219 C 10.6875 23.199219 9.246094 21.761719 9.246094 20 L 9.246094 19.683594 C 9.378906 19.792969 9.515625 19.898438 9.644531 20 C 9.804688 20.160156 10.003906 20.320312 10.207031 20.480469 C 10.285156 20.519531 10.367188 20.558594 10.445312 20.558594 C 10.566406 20.558594 10.6875 20.519531 10.765625 20.398438 C 10.925781 20.238281 10.886719 20 10.726562 19.839844 C 10.527344 19.679688 10.324219 19.519531 10.125 19.359375 C 9.773438 19.085938 9.421875 18.8125 9.109375 18.503906 C 7.914062 17.261719 6.765625 15.398438 6.765625 15.398438 C 5.804688 13.679688 4.285156 11.960938 3.566406 11.121094 C 3.445312 10.960938 3.285156 10.761719 3.207031 10.679688 C 3.207031 10.558594 3.207031 10.480469 3.484375 10.320312 C 3.644531 10.238281 3.765625 10.160156 3.886719 10.121094 C 4.925781 9.761719 6.644531 10.238281 7.40625 11.558594 L 8.023438 12.488281 C 8.027344 12.511719 8.035156 12.535156 8.046875 12.558594 L 8.445312 13.359375 C 8.527344 13.519531 8.925781 13.601562 8.964844 13.519531 C 9.125 13.441406 9.207031 13.199219 9.125 13 L 8.84375 12.4375 C 8.84375 12.421875 8.84375 12.410156 8.84375 12.398438 L 8.84375 2 C 8.84375 1.320312 9.367188 0.800781 10.046875 0.800781 C 10.726562 0.800781 11.246094 1.320312 11.246094 2 L 11.246094 13.320312 C 11.246094 13.558594 11.40625 13.71875 11.644531 13.71875 C 11.886719 13.71875 12.046875 13.558594 12.046875 13.320312 L 12.046875 6.800781 C 12.046875 6.121094 12.566406 5.601562 13.246094 5.601562 C 13.925781 5.601562 14.445312 6.121094 14.445312 6.800781 L 14.445312 12.921875 C 14.445312 13.160156 14.605469 13.320312 14.84375 13.320312 C 15.085938 13.320312 15.246094 13.160156 15.246094 12.921875 L 15.246094 8.398438 C 15.246094 7.71875 15.765625 7.199219 16.445312 7.199219 C 17.125 7.199219 17.644531 7.71875 17.644531 8.398438 L 17.644531 13.320312 C 17.644531 13.558594 17.804688 13.71875 18.046875 13.71875 C 18.285156 13.71875 18.445312 13.558594 18.445312 13.320312 L 18.445312 10.398438 C 18.445312 9.71875 18.964844 9.199219 19.644531 9.199219 C 20.324219 9.199219 20.84375 9.71875 20.84375 10.398438 L 20.84375 16.800781 C 20.84375 17.507812 20.714844 18.085938 20.558594 18.515625 C 20.507812 18.558594 20.472656 18.617188 20.445312 18.679688 C 20.246094 19.28125 19.683594 19.480469 18.683594 19.761719 C 18.484375 19.800781 18.367188 20.039062 18.40625 20.238281 C 18.484375 20.398438 18.644531 20.519531 18.804688 20.519531 C 18.84375 20.519531 18.886719 20.519531 18.886719 20.558594 C 19.148438 20.488281 19.40625 20.414062 19.648438 20.328125 C 19.617188 20.441406 19.589844 20.558594 19.566406 20.679688 C 19.285156 22.039062 17.804688 23.199219 16.445312 23.199219 Z M 16.445312 23.199219"/>
</svg>

<svg xmlns="http://www.w3.org/2000/svg" width="32" height="32" viewBox="0 0 24 24">
    <path d="M19.605 8.398c-.44 0-.878.16-1.199.403v-.403c0-1.117-.879-2-2-2-.441 0-.879.16-1.199.403 0-1.121-.883-2-2-2-.441 0-.883.16-1.203.398V2c0-1.121-.879-2-2-2-1.117 0-2 .879-2 2v9.078c-.879-1.52-2.918-2.277-4.477-1.719-.203.04-.363.16-.562.282-.598.398-.559.918-.559 1.078-.039.242 0 .281.559.922.68.8 2.16 2.48 3.082 4.16.078.078 1.16 1.84 2.36 3.16V20c0 2.2 1.8 4 4 4h4c1.718 0 3.519-1.441 3.917-3.121.121-.48.242-.84.403-1 .398-.48.878-1.598.878-3.078v-6.403c0-1.117-.878-2-2-2zM16.445 23.2h-4A3.208 3.208 0 0 1 9.246 20v-.316c.133.109.27.214.399.316.16.16.359.32.562.48a.57.57 0 0 0 .238.079c.121 0 .242-.04.32-.16.16-.16.122-.399-.038-.56-.2-.16-.403-.32-.602-.48-.352-.273-.703-.547-1.016-.855-1.195-1.242-2.343-3.106-2.343-3.106-.961-1.718-2.48-3.437-3.2-4.277a6.661 6.661 0 0 0-.359-.441c0-.121 0-.2.277-.36.16-.082.282-.16.403-.199 1.039-.36 2.758.117 3.52 1.438l.616.93a.248.248 0 0 0 .024.07l.398.8c.082.16.48.243.52.16.16-.078.242-.32.16-.519l-.281-.563V2c0-.68.523-1.2 1.203-1.2s1.2.52 1.2 1.2v11.32c0 .239.16.399.398.399.242 0 .402-.16.402-.399V6.8c0-.679.52-1.198 1.2-1.198.679 0 1.198.52 1.198 1.199v6.12c0 .24.16.4.399.4.242 0 .402-.16.402-.4V8.399c0-.68.52-1.199 1.2-1.199.679 0 1.199.52 1.199 1.2v4.921c0 .239.16.399.402.399.238 0 .398-.16.398-.399v-2.922c0-.68.52-1.199 1.2-1.199.68 0 1.199.52 1.199 1.2V16.8c0 .707-.13 1.285-.285 1.715a.442.442 0 0 0-.114.164c-.199.601-.761.8-1.761 1.082-.2.039-.317.277-.278.476.078.16.239.282.399.282.039 0 .082 0 .082.039.261-.07.52-.145.761-.23a4.63 4.63 0 0 0-.082.35c-.28 1.36-1.761 2.52-3.12 2.52zm0 0"/>
</svg>
